static/assets/img/icons/theme/general/shield-check.svg

<svg height="24" viewBox="0 0 24 24" width="24" xmlns="http://www.w3.org/2000/svg"><g fill="none" fill-rule="evenodd"><path d="m0 0h24v24h-24z" opacity="0"/><g fill="#000"><path d="m4 4 7.6314229-1.4308918c.2435956-.04567417.4935586-.04567417.7371542 0l7.6314229 1.4308918v9.2830094c0 2.9343767-1.5116536 5.6617741-4 7.2169906l-3.4700011 2.1687507c-.3242702.2026689-.7357276.2026689-1.0599978 0l-3.4700011-2.1687507c-2.48834642-1.5552165-4-4.2826139-4-7.2169906z" opacity=".3"/><path d="m11.1750002 14.75c-.2395833 0-.4791667-.0958333-.6708333-.2875l-1.91666671-1.9166667c-.38333333-.3833333-.38333333-.9583333 0-1.3416666.38333333-.3833334 1.00625-.3833334 1.34166667 0l1.24583334 1.2458333 3.1625-3.1625c.3833333-.38333333.9583333-.38333333 1.3416667 0 .3833333.38333333.3833333.9583333 0 1.3416667l-3.8333334 3.8333333c-.1916666.1916667-.43125.2875-.6708333.2875z"/></g></g></svg>

<svg width="24px" height="24px" viewBox="0 0 24 24" version="1.1" xmlns="http://www.w3.org/2000/svg" xmlns:xlink="http://www.w3.org/1999/xlink">
    <title>Icon For Shield-check</title>
    <g stroke="none" stroke-width="1" fill="none" fill-rule="evenodd">
        <rect opacity="0" x="0" y="0" width="24" height="24"></rect>
        <path d="M4,4 L11.6314229,2.5691082 C11.8750185,2.52343403 12.1249815,2.52343403 12.3685771,2.5691082 L20,4 L20,13.2830094 C20,16.2173861 18.4883464,18.9447835 16,20.5 L12.5299989,22.6687507 C12.2057287,22.8714196 11.7942713,22.8714196 11.4700011,22.6687507 L8,20.5 C5.51165358,18.9447835 4,16.2173861 4,13.2830094 L4,4 Z" fill="#000000" opacity="0.3"></path>
        <path d="M11.1750002,14.75 C10.9354169,14.75 10.6958335,14.6541667 10.5041669,14.4625 L8.58750019,12.5458333 C8.20416686,12.1625 8.20416686,11.5875 8.58750019,11.2041667 C8.97083352,10.8208333 9.59375019,10.8208333 9.92916686,11.2041667 L11.1750002,12.45 L14.3375002,9.2875 C14.7208335,8.90416667 15.2958335,8.90416667 15.6791669,9.2875 C16.0625002,9.67083333 16.0625002,10.2458333 15.6791669,10.6291667 L11.8458335,14.4625 C11.6541669,14.6541667 11.4145835,14.75 11.1750002,14.75 Z" fill="#000000"></path>
    </g>
</svg>
